SVG_Azure_All/O365 - API Yammer.svg

<?xml version="1.0" encoding="UTF-8" standalone="no"?>
<!-- Generated by Microsoft Visio, SVG Export O365 - API Yammer.svg Page-1 -->

<svg
   xmlns:dc="http://purl.org/dc/elements/1.1/"
   xmlns:cc="http://creativecommons.org/ns#"
   xmlns:rdf="http://www.w3.org/1999/02/22-rdf-syntax-ns#"
   xmlns:svg="http://www.w3.org/2000/svg"
   xmlns="http://www.w3.org/2000/svg"
   xmlns:sodipodi="http://sodipodi.sourceforge.net/DTD/sodipodi-0.dtd"
   xmlns:inkscape="http://www.inkscape.org/namespaces/inkscape"
   width="0.78739941in"
   height="0.78739941in"
   viewBox="0 0 56.692756 56.692898"
   xml:space="preserve"
   class="st5"
   version="1.1"
   id="svg42"
   sodipodi:docname="O365 - API Yammer.svg"
   style="font-size:12px;overflow:visible;color-interpolation-filters:sRGB;fill:none;fill-rule:evenodd;stroke-linecap:square;stroke-miterlimit:3"
   inkscape:version="0.92.5 (2060ec1f9f, 2020-04-08)"><metadata
   id="metadata48"><rdf:RDF><cc:Work
       rdf:about=""><dc:format>image/svg+xml</dc:format><dc:type
         rdf:resource="http://purl.org/dc/dcmitype/StillImage" /></cc:Work></rdf:RDF></metadata><defs
   id="defs46" /><sodipodi:namedview
   pagecolor="#ffffff"
   bordercolor="#666666"
   borderopacity="1"
   objecttolerance="10"
   gridtolerance="10"
   guidetolerance="10"
   inkscape:pageopacity="0"
   inkscape:pageshadow="2"
   inkscape:window-width="640"
   inkscape:window-height="480"
   id="namedview44"
   showgrid="false"
   inkscape:zoom="1.8365233"
   inkscape:cx="37.795184"
   inkscape:cy="18.897555"
   inkscape:window-x="0"
   inkscape:window-y="0"
   inkscape:window-maximized="0"
   inkscape:current-layer="svg42" />
	<style
   type="text/css"
   id="style2">
	<![CDATA[
		.st1 {fill:#0092bd;stroke:none;stroke-width:0.75}
		.st2 {fill:#ffffff;stroke:none;stroke-width:1}
		.st3 {fill:none}
		.st4 {stroke:none;stroke-width:0.75}
		.st5 {fill:none;fill-rule:evenodd;font-size:12px;overflow:visible;stroke-linecap:square;stroke-miterlimit:3}
	]]>
	</style>

	<g
   id="g40"
   transform="translate(-5.6693772,-5.6693014)">
		<title
   id="title4">Page-1</title>
		<g
   id="group2683-1"
   transform="translate(5.66929,-34.0157)">
			<title
   id="title6">O365 - API Yammer</title>
			<desc
   id="desc8">This package will provide stencils to visually represent Power Platform: Power Bi, Power Apps, Power Virtual Agents and/or Power Automate devices, architectures or solutions diagrams. It will provide stencils to visually represent features, systems, processes and architectures that use these technologies.</desc>
			<g
   id="group2684-2">
				<title
   id="title10">Page-1</title>
				<g
   id="group2685-3">
					<title
   id="title12">Power Automate API: Yammer</title>
					<g
   id="group2686-4">
						<title
   id="title14">rect5099.2962</title>
						<g
   id="shape2687-5">
							<title
   id="title16">Sheet.2687</title>
							<rect
   x="0"
   y="39.685001"
   width="56.692902"
   height="56.692902"
   class="st1"
   id="rect18"
   style="fill:#0092bd;stroke:none;stroke-width:0.75" />
						</g>
					</g>
					<g
   id="group2688-7"
   transform="translate(12.4277,-13.7371)">
						<title
   id="title22">path5115.2963</title>
						<g
   id="shape2689-8">
							<title
   id="title24">Sheet.2689</title>
							<path
   d="m 33.37,80.53 h -0.28 c -1.4,0 -10.89,1.12 -10.46,2.08 0.41,0.98 6.42,1.39 10.6,1.39 a 1.81529,1.80728 -180 0 0 0.14,-3.47 z m -3.21,10.14 c -3.77,-2.07 -9.08,-4.44 -10.05,-3.89 -0.98,0.56 6.98,6.13 8.23,6.82 h 0.15 a 1.81529,1.80728 -180 0 0 1.53,-3.06 z M 30.02,73.85 A 1.81529,1.80728 -180 0 0 28.49,70.8 h -0.15 c -1.11,0.7 -9.07,6.12 -8.23,6.81 0.84,0.7 6.28,-1.52 9.91,-3.61 z M 7.82,88.6 C 6.7,91.65 5.73,93.19 3.35,93.19 H 2.23 A 1.67566,1.66826 -180 0 0 1.68,96.38 H 3.5 c 4.32,0 5.71,-2.5 7.11,-6.12 L 19,69.41 A 1.81529,1.80728 -180 0 0 15.63,68.29 L 9.92,84 H 9.77 L 3.5,68.29 A 1.95493,1.9463 -180 0 0 0,69.68 Z"
   class="st2"
   id="path26"
   inkscape:connector-curvature="0"
   style="fill:#ffffff;stroke:none;stroke-width:1" />
						</g>
						<g
   id="shape2690-10">
							<title
   id="title29">Sheet.2690</title>
							<path
   d="m 33.37,80.53 h -0.28 c -1.4,0 -10.89,1.12 -10.46,2.08 0.41,0.98 6.42,1.39 10.6,1.39 a 1.81529,1.80728 -180 0 0 0.14,-3.47 z m -3.21,10.14 c -3.77,-2.07 -9.08,-4.44 -10.05,-3.89 -0.98,0.56 6.98,6.13 8.23,6.82 h 0.15 a 1.81529,1.80728 -180 0 0 1.53,-3.06 z M 30.02,73.85 A 1.81529,1.80728 -180 0 0 28.49,70.8 h -0.15 c -1.11,0.7 -9.07,6.12 -8.23,6.81 0.84,0.7 6.28,-1.52 9.91,-3.61 z M 7.82,88.6 C 6.7,91.65 5.73,93.19 3.35,93.19 H 2.23 A 1.67566,1.66826 -180 0 0 1.68,96.38 H 3.5 c 4.32,0 5.71,-2.5 7.11,-6.12 L 19,69.41 A 1.81529,1.80728 -180 0 0 15.63,68.29 L 9.92,84 H 9.77 L 3.5,68.29 A 1.95493,1.9463 -180 0 0 0,69.68 Z"
   class="st3"
   id="path31"
   inkscape:connector-curvature="0"
   style="fill:none" />
							<path
   d="m 33.37,80.53 h -0.28 c -1.4,0 -10.89,1.12 -10.46,2.08 0.41,0.98 6.42,1.39 10.6,1.39 a 1.81529,1.80728 -180 0 0 0.14,-3.47 m -3.21,10.14 c -3.77,-2.07 -9.08,-4.44 -10.05,-3.89 -0.98,0.56 6.98,6.13 8.23,6.82 h 0.15 a 1.81529,1.80728 -180 0 0 1.53,-3.06 m 0,-16.69 A 1.81529,1.80728 -180 0 0 28.49,70.8 h -0.15 c -1.11,0.7 -9.07,6.12 -8.23,6.81 0.84,0.7 6.28,-1.52 9.91,-3.61 V 73.85 M 7.82,88.6 C 6.7,91.65 5.73,93.19 3.35,93.19 H 2.23 A 1.67566,1.66826 -180 0 0 1.68,96.38 H 3.5 c 4.32,0 5.71,-2.5 7.11,-6.12 L 19,69.41 A 1.81529,1.80728 -180 0 0 15.63,68.29 L 9.92,84 H 9.77 L 3.5,68.29 A 1.95493,1.9463 -180 0 0 0,69.68 L 7.82,88.6"
   class="st4"
   id="path33"
   inkscape:connector-curvature="0"
   style="stroke:none;stroke-width:0.75" />
						</g>
					</g>
				</g>
			</g>
		</g>
	</g>
</svg>

<?xml version="1.0" encoding="UTF-8" standalone="no"?>
<!DOCTYPE svg PUBLIC "-//W3C//DTD SVG 1.1//EN" "http://www.w3.org/Graphics/SVG/1.1/DTD/svg11.dtd">
<!-- Generated by Microsoft Visio, SVG Export O365 - API Yammer.svg Page-1 -->
<svg xmlns="http://www.w3.org/2000/svg" xmlns:xlink="http://www.w3.org/1999/xlink" xmlns:ev="http://www.w3.org/2001/xml-events"
		width="0.944882in" height="1.33858in" viewBox="0 0 68.0315 96.378" xml:space="preserve" color-interpolation-filters="sRGB"
		class="st5">
	<style type="text/css">
	<![CDATA[
		.st1 {fill:#0092bd;stroke:none;stroke-width:0.75}
		.st2 {fill:#ffffff;stroke:none;stroke-width:1}
		.st3 {fill:none}
		.st4 {stroke:none;stroke-width:0.75}
		.st5 {fill:none;fill-rule:evenodd;font-size:12px;overflow:visible;stroke-linecap:square;stroke-miterlimit:3}
	]]>
	</style>

	<g>
		<title>Page-1</title>
		<g id="group2657-1" transform="translate(5.66929,-34.0157)">
			<title>O365 - API Yammer</title>
			<desc>This package will provide stencils to visually represent Power Platform: Power Bi, Power Apps, Power Virtual Agents and/or Power Automate devices, architectures or solutions diagrams. It will provide stencils to visually represent features, systems, processes and architectures that use these technologies.</desc>
			<g id="group2658-2">
				<title>Page-1</title>
				<g id="group2659-3">
					<title>Power Automate API: Yammer</title>
					<g id="group2660-4">
						<title>rect5099.2962</title>
						<g id="shape2661-5">
							<title>Sheet.2661</title>
							<rect x="0" y="39.685" width="56.6929" height="56.6929" class="st1"/>
						</g>
					</g>
					<g id="group2662-7" transform="translate(12.4277,-13.7371)">
						<title>path5115.2963</title>
						<g id="shape2663-8">
							<title>Sheet.2663</title>
							<path d="M33.37 80.53 L33.09 80.53 C31.69 80.53 22.2 81.65 22.63 82.61 C23.04 83.59 29.05 84 33.23 84
										 A1.81529 1.80728 -180 0 0 33.37 80.53 ZM30.16 90.67 C26.39 88.6 21.08 86.23 20.11 86.78
										 C19.13 87.34 27.09 92.91 28.34 93.6 L28.49 93.6 A1.81529 1.80728 -180 0 0 30.02 90.54 L30.16
										 90.67 ZM30.02 73.85 A1.81529 1.80728 -180 0 0 28.49 70.8 L28.34 70.8 C27.23 71.5 19.27 76.92
										 20.11 77.61 C20.95 78.31 26.39 76.09 30.02 74 L30.02 73.85 ZM7.82 88.6 C6.7 91.65 5.73 93.19
										 3.35 93.19 L2.23 93.19 A1.67566 1.66826 -180 0 0 1.68 96.38 L3.5 96.38 C7.82 96.38 9.21
										 93.88 10.61 90.26 L19 69.41 A1.81529 1.80728 -180 0 0 15.63 68.29 L9.92 84 L9.77 84 L3.5
										 68.29 A1.95493 1.9463 -180 0 0 -0 69.68 L7.82 88.6 Z" class="st2"/>
						</g>
						<g id="shape2664-10">
							<title>Sheet.2664</title>
							<path d="M33.37 80.53 L33.09 80.53 C31.69 80.53 22.2 81.65 22.63 82.61 C23.04 83.59 29.05 84 33.23 84
										 A1.81529 1.80728 -180 0 0 33.37 80.53 ZM30.16 90.67 C26.39 88.6 21.08 86.23 20.11 86.78
										 C19.13 87.34 27.09 92.91 28.34 93.6 L28.49 93.6 A1.81529 1.80728 -180 0 0 30.02 90.54 L30.16
										 90.67 ZM30.02 73.85 A1.81529 1.80728 -180 0 0 28.49 70.8 L28.34 70.8 C27.23 71.5 19.27 76.92
										 20.11 77.61 C20.95 78.31 26.39 76.09 30.02 74 L30.02 73.85 ZM7.82 88.6 C6.7 91.65 5.73 93.19
										 3.35 93.19 L2.23 93.19 A1.67566 1.66826 -180 0 0 1.68 96.38 L3.5 96.38 C7.82 96.38 9.21
										 93.88 10.61 90.26 L19 69.41 A1.81529 1.80728 -180 0 0 15.63 68.29 L9.92 84 L9.77 84 L3.5
										 68.29 A1.95493 1.9463 -180 0 0 -0 69.68 L7.82 88.6 Z" class="st3"/>
							<path d="M33.37 80.53 L33.09 80.53 C31.69 80.53 22.2 81.65 22.63 82.61 C23.04 83.59 29.05 84 33.23 84
										 A1.81529 1.80728 -180 0 0 33.37 80.53M30.16 90.67 C26.39 88.6 21.08 86.23 20.11 86.78 C19.13
										 87.34 27.09 92.91 28.34 93.6 L28.49 93.6 A1.81529 1.80728 -180 0 0 30.02 90.54M30.02 73.85
										 A1.81529 1.80728 -180 0 0 28.49 70.8 L28.34 70.8 C27.23 71.5 19.27 76.92 20.11 77.61 C20.95
										 78.31 26.39 76.09 30.02 74 L30.02 73.85M7.82 88.6 C6.7 91.65 5.73 93.19 3.35 93.19 L2.23
										 93.19 A1.67566 1.66826 -180 0 0 1.68 96.38 L3.5 96.38 C7.82 96.38 9.21 93.88 10.61 90.26
										 L19 69.41 A1.81529 1.80728 -180 0 0 15.63 68.29 L9.92 84 L9.77 84 L3.5 68.29 A1.95493 1.9463
										 -180 0 0 -0 69.68 L7.82 88.6" class="st4"/>
						</g>
					</g>
				</g>
			</g>
		</g>
	</g>
</svg>
